X:293
T:Glentromie
R:Strathspey
C:William Marshall
B:The Athole Collection
M:C|
L:1/8
K:C
e/f/|g<c e>d c2 ce/f/|g<c a>c B<dde/f/|g<c e>d c2 c/B/A/G/|
A/B/c/A/ B/c/d/B/ G<c c:|
G/F/|E<cG<c E<cG<c|e>d c/d/e/c/ d<DDG/F/|E<cG<c E<g e>c|
A<f d>B e<(c~c)G/F/|E<cG<c E<cG<c|e>d c/d/e/c/| d<(DD)G/F/|
E>Gc>E F>Ad>f|e/f/g/a/ g/f/e/d/ e<c ~c||

